src/apps/scalable/org.xfce.panel.directorymenu.svg

<svg width="64" height="64" version="1.1" viewBox="0 0 16.933 16.933" xmlns="http://www.w3.org/2000/svg">
 <defs>
  <linearGradient id="c" x1="8.466" x2="8.466" y1="284.41" y2="295.41" gradientTransform="matrix(4.3611 0 0 4.3611 -4.9211 -1226.3)" gradientUnits="userSpaceOnUse">
   <stop stop-color="#35cafc" offset="0"/>
   <stop stop-color="#50d4ff" offset=".5"/>
   <stop stop-color="#4dcbf6" offset="1"/>
  </linearGradient>
  <linearGradient id="b" x1="8.467" x2="8.467" y1="282.18" y2="294.88" gradientTransform="matrix(.97498 0 0 .97498 .21088 7.2211)" gradientUnits="userSpaceOnUse">
   <stop stop-color="#78d9fd" offset="0"/>
   <stop stop-color="#7bdeff" offset="1"/>
  </linearGradient>
  <linearGradient id="a" x1="8.466" x2="8.466" y1="294.95" y2="295.41" gradientTransform="matrix(4.3611 0 0 4.3611 -4.9211 -1226.3)" gradientUnits="userSpaceOnUse">
   <stop stop-color="#3bc1f1" offset="0"/>
   <stop stop-color="#0e95c5" offset="1"/>
  </linearGradient>
 </defs>
 <g transform="matrix(1.1539 0 0 1.1539 -1.302 -324.46)" style="paint-order:stroke markers fill">
  <circle cx="8.466" cy="288.53" r="6.1911" fill="url(#b)" stroke-width=".7511"/>
  <g stroke-width="3.2756">
   <path transform="matrix(.2293 0 0 .2293 1.1284 281.2)" d="m32 14c-1.2778 0-1.6612 0.73798-2.3066 1.8457l-1.3438 2.1543h-19.35c-1.2909 0-1.9585-0.036058-2.4883 0.050781-1.0591 0.1736-1.5074 0.95696-1.957 1.9492l-0.24219 0.5332c-1.5081 3.6268-2.3052 7.5182-2.3125 11.463 8.897e-4 1.0006 0.051537 2.0006 0.15234 2.9961 1.0582 10.424 7.4767 19.54 16.934 24.051 0.46103 0.22721 0.9283 0.44334 1.4004 0.64648h0.04492c3.6345 1.5157 7.5309 2.3002 11.469 2.3105 12.298-0.0044 23.348-7.5136 27.881-18.945 0.3587-0.9058 0.67248-1.8273 0.94141-2.7637l0.02734-0.07813v-0.0059c0.20685-0.75164 0.38354-1.5099 0.53125-2.2754 0.05364-0.23201 0.10424-0.46603 0.15234-0.69922 0.10955-0.66267 0.19687-1.3275 0.26172-1.9961 0.04479-0.33057 0.08348-0.66209 0.11719-0.99414 0.057134-0.74728 0.086891-1.4966 0.087894-2.246-0.003107-6.2735-1.9946-12.365-5.6367-17.447-0.14272-0.15566-0.30021-0.28932-0.48438-0.38281-0.20941-0.10631-0.44956-0.16602-0.72656-0.16602z" fill="url(#c)"/>
   <path transform="matrix(.2293 0 0 .2293 1.1284 281.2)" d="m21.332 60c3.4042 1.3064 7.0168 1.9904 10.668 2 3.7456-0.00134 7.3711-0.70747 10.736-2h-21.404z" fill="url(#a)"/>
   <path transform="matrix(.2293 0 0 .2293 1.1284 281.2)" d="m14.051 56c0.46484 0.3471 0.94498 0.67895 1.4316 1h33.07c0.47908-0.31739 0.9441-0.6556 1.4043-1h-35.906zm3.0586 2c0.61733 0.35302 1.2459 0.68907 1.8926 1h26.062c0.64212-0.31109 1.2714-0.64463 1.8887-1h-29.844z" fill="#3bc1f1"/>
  </g>
 </g>
 <path transform="scale(.26458)" d="m21 23.004c-1.1077 0-2 0.89233-2 2v3.002h26v-3.002c0-1.1077-0.89233-2-2-2h-22zm1.002 1.9961a1.0016 1.0016 0 0 1 1 1.002 1.0016 1.0016 0 0 1-1 1.002 1.0016 1.0016 0 0 1-1.002-1.002 1.0016 1.0016 0 0 1 1.002-1.002zm-3.002 4.002v5.002h26v-5.002h-26zm3.002 2a1.0016 1.0016 0 0 1 1 1.002 1.0016 1.0016 0 0 1-1 1.002 1.0016 1.0016 0 0 1-1.002-1.002 1.0016 1.0016 0 0 1 1.002-1.002zm-3.002 4.002v5.002h26v-5.002h-26zm3.002 1.9961a1.0016 1.0016 0 0 1 1 1.002 1.0016 1.0016 0 0 1-1 1.002 1.0016 1.0016 0 0 1-1.002-1.002 1.0016 1.0016 0 0 1 1.002-1.002zm-3.002 4.002v5.002h26v-5.002h-26zm3.002 2a1.0016 1.0016 0 0 1 1 1.002 1.0016 1.0016 0 0 1-1 1.002 1.0016 1.0016 0 0 1-1.002-1.002 1.0016 1.0016 0 0 1 1.002-1.002zm-3.002 4.0039v4.002c0 1.1077 0.89233 2 2 2h22c1.1077 0 2-0.89233 2-2v-4.002h-26zm3.002 1.9941a1.0016 1.0016 0 0 1 1 1.002 1.0016 1.0016 0 0 1-1 1.002 1.0016 1.0016 0 0 1-1.002-1.002 1.0016 1.0016 0 0 1 1.002-1.002z" fill="#000000" opacity=".1" style="paint-order:markers stroke fill"/>
</svg>

<svg width="64" height="64" viewBox="0 0 16.933 16.933" xmlns="http://www.w3.org/2000/svg"><defs><linearGradient id="b" x1="8.466" x2="8.466" y1="284.41" y2="295.41" gradientTransform="translate(-4.921 -1226.3) scale(4.3611)" gradientUnits="userSpaceOnUse"><stop stop-color="#35cafc" offset="0"/><stop stop-color="#50d4ff" offset=".5"/><stop stop-color="#4dcbf6" offset="1"/></linearGradient><linearGradient id="a" x1="8.467" x2="8.467" y1="282.18" y2="294.88" gradientTransform="translate(.21 7.221) scale(.97498)" gradientUnits="userSpaceOnUse"><stop stop-color="#78d9fd" offset="0"/><stop stop-color="#7bdeff" offset="1"/></linearGradient><linearGradient id="c" x1="8.466" x2="8.466" y1="294.95" y2="295.41" gradientTransform="translate(-4.921 -1226.3) scale(4.3611)" gradientUnits="userSpaceOnUse"><stop stop-color="#3bc1f1" offset="0"/><stop stop-color="#0e95c5" offset="1"/></linearGradient></defs><g transform="translate(-1.302 -324.46) scale(1.1539)" style="paint-order:stroke markers fill"><circle cx="8.466" cy="288.53" r="6.191" fill="url(#a)"/><g stroke-width="3.276"><path transform="translate(1.128 281.2) scale(.2293)" d="M32 14c-1.278 0-1.661.738-2.307 1.846L28.35 18H9c-1.291 0-1.959-.036-2.489.05-1.059.174-1.507.958-1.957 1.95l-.242.533A30.002 30.002 0 0 0 2 31.996a30.003 30.003 0 0 0 17.086 27.047c.461.227.928.444 1.4.647h.045A29.998 29.998 0 0 0 32.001 62a30.005 30.005 0 0 0 28.822-21.708l.027-.079v-.005c.207-.752.384-1.51.531-2.276.054-.232.105-.466.153-.7.11-.662.196-1.327.261-1.995.045-.33.084-.662.118-.994.057-.748.086-1.497.087-2.246a29.983 29.983 0 0 0-5.636-17.447 1.72 1.72 0 0 0-.485-.383 1.58 1.58 0 0 0-.726-.166z" fill="url(#b)"/><path transform="translate(1.128 281.2) scale(.2293)" d="M21.332 60A29.994 29.994 0 0 0 32 62a29.936 29.936 0 0 0 10.736-2H21.332z" fill="url(#c)"/><path d="M4.35 294.04c.107.08.217.156.329.23h7.583c.11-.073.216-.15.322-.23H4.35zm.702.46c.141.08.285.157.434.229h5.976c.147-.072.291-.148.433-.23H5.05z" fill="#3bc1f1"/></g></g><path transform="scale(.26458)" d="M21 23.004c-1.108 0-2 .892-2 2v3.002h26v-3.002c0-1.108-.892-2-2-2H21zM22.002 25a1.002 1.002 0 0 1 1 1.002 1.002 1.002 0 0 1-1 1.002A1.002 1.002 0 0 1 21 26.002 1.002 1.002 0 0 1 22.002 25zM19 29.002v5.002h26v-5.002H19zm3.002 2a1.002 1.002 0 0 1 1 1.002 1.002 1.002 0 0 1-1 1.002A1.002 1.002 0 0 1 21 32.004a1.002 1.002 0 0 1 1.002-1.002zM19 35.004v5.002h26v-5.002H19zM22.002 37a1.002 1.002 0 0 1 1 1.002 1.002 1.002 0 0 1-1 1.002A1.002 1.002 0 0 1 21 38.002 1.002 1.002 0 0 1 22.002 37zM19 41.002v5.002h26v-5.002H19zm3.002 2a1.002 1.002 0 0 1 1 1.002 1.002 1.002 0 0 1-1 1.002A1.002 1.002 0 0 1 21 44.004a1.002 1.002 0 0 1 1.002-1.002zM19 47.006v4.002c0 1.108.892 2 2 2h22c1.108 0 2-.892 2-2v-4.002H19zM22.002 49a1.002 1.002 0 0 1 1 1.002 1.002 1.002 0 0 1-1 1.002A1.002 1.002 0 0 1 21 50.002 1.002 1.002 0 0 1 22.002 49z" opacity=".1" style="paint-order:markers stroke fill"/></svg>
